svg/turbopack.svg

<?xml version="1.0" encoding="UTF-8"?><svg enable-background="new 0 0 102 102" version="1.1" viewBox="0 0 102 102" xml:space="preserve" xmlns="http://www.w3.org/2000/svg"><style type="text/css">.st0{fill-rule:evenodd;clip-rule:evenodd;} .st1{fill-rule:evenodd;clip-rule:evenodd;fill:url(#a);}</style><path class="st0" d="m39.5 37.5c-1.2 0-2.1 0.9-2.1 2.1v23.2c0 1.2 0.9 2.1 2.1 2.1h23.2c1.2 0 2.1-0.9 2.1-2.1v-23.2c0-1.2-0.9-2.1-2.1-2.1h-23.2zm-16.7-16.6c-1.1 0-1.9 0.9-1.9 1.9v56.6c0 1.1 0.9 1.9 1.9 1.9h56.6c1.1 0 1.9-0.9 1.9-1.9v-56.6c0-1.1-0.9-1.9-1.9-1.9h-56.6z"/><linearGradient id="a" x1="86.38" x2="36.306" y1="66.131" y2="16.398" gradientTransform="matrix(1 0 0 -1 0 104)" gradientUnits="userSpaceOnUse"><stop stop-color="#0096FF" offset="0"/><stop stop-color="#FF1E56" offset="1"/></linearGradient><path class="st1" d="m0.1 52.1v36.8c0 2.5 0.7 4.8 1.9 6.7l13.3-13.3v-30.2h-15.2zm6.1 47.8 13.2-13.2h0.3 29v15.2h-35.6c-2.5 0-4.9-0.8-6.9-2zm48.3 2h34.3c7.2 0 13-5.8 13-13v-75.8c0-7.2-5.8-13-13-13h-36.7v15.2h30.3c2.4 0 4.3 1.9 4.3 4.3v62.8c0 2.4-1.9 4.3-4.3 4.3h-27.9v15.2z"/></svg>

<svg xmlns="http://www.w3.org/2000/svg" xml:space="preserve" viewBox="0 0 102 102"><path d="M39.5 37.5c-1.2 0-2.1.9-2.1 2.1v23.2c0 1.2.9 2.1 2.1 2.1h23.2c1.2 0 2.1-.9 2.1-2.1V39.6c0-1.2-.9-2.1-2.1-2.1H39.5zM22.8 20.9c-1.1 0-1.9.9-1.9 1.9v56.6c0 1.1.9 1.9 1.9 1.9h56.6c1.1 0 1.9-.9 1.9-1.9V22.8c0-1.1-.9-1.9-1.9-1.9H22.8z" style="fill-rule:evenodd;clip-rule:evenodd"/><linearGradient id="a" x1="86.38" x2="36.306" y1="66.131" y2="16.398" gradientTransform="matrix(1 0 0 -1 0 104)" gradientUnits="userSpaceOnUse"><stop offset="0" stop-color="#0096FF"/><stop offset="1" stop-color="#FF1E56"/></linearGradient><path d="M.1 52.1v36.8c0 2.5.7 4.8 1.9 6.7l13.3-13.3V52.1H.1zm6.1 47.8 13.2-13.2h29.3v15.2H13.1c-2.5 0-4.9-.8-6.9-2zm48.3 2h34.3c7.2 0 13-5.8 13-13V13.1c0-7.2-5.8-13-13-13H52.1v15.2h30.3c2.4 0 4.3 1.9 4.3 4.3v62.8c0 2.4-1.9 4.3-4.3 4.3H54.5v15.2z" style="fill-rule:evenodd;clip-rule:evenodd;fill:url(#a)"/></svg>
